modules/hawcons-stroke/icons/file-app.svg

<?xml version="1.0" encoding="UTF-8" standalone="no"?>
<svg width="32px" height="32px" viewBox="0 0 32 32" version="1.1" xmlns="http://www.w3.org/2000/svg" xmlns:xlink="http://www.w3.org/1999/xlink" xmlns:sketch="http://www.bohemiancoding.com/sketch/ns">
    <!-- Generator: Sketch 3.0.3 (7891) - http://www.bohemiancoding.com/sketch -->
    <title>icon 3 file app</title>
    <desc>Created with Sketch.</desc>
    <defs></defs>
    <g id="Page-1" stroke="none" stroke-width="1" fill="none" fill-rule="evenodd" sketch:type="MSPage">
        <g id="icon-3-file-app" sketch:type="MSArtboardGroup" fill="#929292">
            <path d="M8.00684834,10 C6.34621185,10 5,11.3422643 5,12.9987856 L5,20.0012144 C5,21.6573979 6.33599155,23 8.00684834,23 L24.9931517,23 C26.6537881,23 28,21.6577357 28,20.0012144 L28,12.9987856 C28,11.3426021 26.6640085,10 24.9931517,10 L8.00684834,10 L8.00684834,10 Z M7.99456145,11 C6.89299558,11 6,11.9001762 6,12.992017 L6,20.007983 C6,21.1081436 6.90234375,22 7.99456145,22 L25.0054385,22 C26.1070044,22 27,21.0998238 27,20.007983 L27,12.992017 C27,11.8918564 26.0976562,11 25.0054385,11 L7.99456145,11 L7.99456145,11 Z M12,17 L9,17 L9,20 L8,20 L8,16.5 L8,15 C8,13.8877296 8.89761602,13 10.0048815,13 L10.9951185,13 C12.1061002,13 13,13.8954305 13,15 L13,17 L13,20 L12,20 L12,17 L12,17 L12,17 Z M9.99895656,14 C9.44724809,14 9,14.4438648 9,15 L9,16 L12,16 L12,15 C12,14.4477153 11.5573397,14 11.0010434,14 L9.99895656,14 L9.99895656,14 Z M14,15 L14,20 L15,20 L15,17 L16.9951185,17 C18.102384,17 19,16.1122704 19,15 C19,13.8954305 18.1061002,13 16.9951185,13 L14,13 L14,15 L14,15 Z M15,14 L15,16 L17.0010434,16 C17.5527519,16 18,15.5561352 18,15 C18,14.4477153 17.5573397,14 17.0010434,14 L15,14 L15,14 Z M20,15 L20,20 L21,20 L21,17 L22.9951185,17 C24.102384,17 25,16.1122704 25,15 C25,13.8954305 24.1061002,13 22.9951185,13 L20,13 L20,15 L20,15 Z M21,14 L21,16 L23.0010434,16 C23.5527519,16 24,15.5561352 24,15 C24,14.4477153 23.5573397,14 23.0010434,14 L21,14 L21,14 Z" id="file-app" sketch:type="MSShapeGroup"></path>
        </g>
    </g>
</svg>

<svg width="32" height="32" viewBox="0 0 32 32" xmlns="http://www.w3.org/2000/svg"><path d="M8.007 10A3.003 3.003 0 0 0 5 12.999V20A2.996 2.996 0 0 0 8.007 23h16.986A3.003 3.003 0 0 0 28 20.001V13A2.996 2.996 0 0 0 24.993 10H8.007zm-.012 1C6.893 11 6 11.9 6 12.992v7.016A2 2 0 0 0 7.995 22h17.01C26.107 22 27 21.1 27 20.008v-7.016A2 2 0 0 0 25.005 11H7.995zM12 17H9v3H8v-5c0-1.112.898-2 2.005-2h.99A2 2 0 0 1 13 15v5h-1v-3zm-2.001-3A.997.997 0 0 0 9 15v1h3v-1c0-.552-.443-1-.999-1H9.999zM14 15v5h1v-3h1.995a2 2 0 0 0 0-4H14v2zm1-1v2h2.001A.997.997 0 0 0 18 15c0-.552-.443-1-.999-1H15zm5 1v5h1v-3h1.995a2 2 0 0 0 0-4H20v2zm1-1v2h2.001A.997.997 0 0 0 24 15c0-.552-.443-1-.999-1H21z" fill="#929292" fill-rule="evenodd"/></svg>
